**kern
*part1
*staff1
*clefC1
*k[f#c#g#]
*M2/4
1%0r
=2
1%0r
=3
1%0r
=4
1%0r
=5
1%0r
=6
1%0r
=7
1%0r
=8
1%0r
=9
1%0r
=10
1%0r
=11
4ee
16eeL
16cc#y
16ee
16cc#yJ
=12
16aaL
16eeJ
4ee
32ddL
32cc#y
32dd
32eeJ
=13
4ff#y
16ff#yL
16dd
16ff#y
16ddJ
=14
16aaL
16ff#yJ
4.ff#y
=15
4ee
16ddL
16cc#yJ
16bL
16aJ
=16
*-
